public/library/token-pocket-icon-dark.svg

<svg xmlns="http://www.w3.org/2000/svg" width="840" height="544" fill="none" viewBox="0 0 840 544"><g fill="#fff" clip-path="url(#a)"><path d="M329.42 1.999H25.689C11.484 1.999 0 13.483 0 27.688v104.266c0 14.204 11.484 25.689 25.689 25.689h97.768v360.851c0 14.204 11.484 25.689 25.689 25.689H258.55c14.204 0 25.688-11.485 25.688-25.689V157.643h44.729c42.915 0 77.822-34.907 77.822-77.822.453-42.915-34.453-77.822-77.369-77.822"/><path fill-rule="evenodd" d="M625.001 2C506.229 2 409.82 98.408 409.82 217.181l.002.849v299.709c0 14.204 11.484 25.689 25.689 25.689h115.146c14.204 0 25.689-11.485 25.689-25.689v-90.851l.132.03.522.082c5.742 1.36 11.114 2.337 17.158 3.244 8.462 1.209 17.227 1.965 25.991 2.116l4.851-.001c4.232 0 8.312-.148 12.392-.299 113.031-6.498 202.79-100.186 202.79-214.879C840.334 98.408 743.925 2 625.001 2m12.392 262.025c-3.929 1.058-8.161 1.659-12.392 1.659-1.164 0-2.188-.015-3.341-.15-24.813-1.634-44.512-21.969-45.165-47.069v-1.284c0-26.746 21.76-48.506 48.507-48.506s48.506 21.76 48.506 48.506c0 22.516-15.262 41.404-36.115 46.844" clip-rule="evenodd"/></g><defs><clipPath id="a"><path fill="#fff" d="M0 0h840v544H0z"/></clipPath></defs></svg>

<svg width="840" height="544" viewBox="0 0 840 544" fill="none" xmlns="http://www.w3.org/2000/svg">
<g clip-path="url(#clip0_2891_41222)">
<path d="M329.42 1.99902H323.829H25.6887C11.4844 1.99902 0 13.4834 0 27.6878V131.954C0 146.158 11.4844 157.643 25.6887 157.643H95.6528H123.457V188.469V518.494C123.457 532.698 134.941 544.183 149.146 544.183H258.55C272.754 544.183 284.238 532.698 284.238 518.494V188.469V185.598V157.643H312.043H323.376H328.967C371.882 157.643 406.789 122.736 406.789 79.8208C407.242 36.9055 372.336 1.99902 329.42 1.99902Z" fill="white"/>
<path fill-rule="evenodd" clip-rule="evenodd" d="M625.001 2C506.229 2 409.82 98.4083 409.82 217.181C409.82 217.464 409.821 217.747 409.822 218.03V517.739C409.822 531.943 421.306 543.428 435.511 543.428H550.657C564.861 543.428 576.346 531.943 576.346 517.739V426.888L576.478 426.918L577 427C582.742 428.36 588.114 429.337 594.158 430.244C602.62 431.453 611.385 432.209 620.149 432.36L625 432.359C629.232 432.359 633.312 432.211 637.392 432.06C750.423 425.562 840.182 331.874 840.182 217.181C840.334 98.4083 743.925 2 625.001 2ZM637.393 264.025C633.464 265.083 629.232 265.684 625.001 265.684C623.837 265.684 622.813 265.669 621.66 265.534C596.847 263.9 577.148 243.565 576.495 218.465V217.181C576.495 190.435 598.255 168.675 625.002 168.675C651.748 168.675 673.508 190.435 673.508 217.181C673.508 239.697 658.246 258.585 637.393 264.025Z" fill="white"/>
</g>
<defs>
<clipPath id="clip0_2891_41222">
<rect width="840" height="544" fill="white"/>
</clipPath>
</defs>
</svg>
